X:1
T:Conchita, 11.11.11 D
T:Conchita, 11.11.11 D
T:Ira Bishop WIlson, 1909
T:Public Domain Courtesy of the Cyber Hymnal™
C:Ira Bishop WIlson, 1909
Z:Public Domain
Z:Courtesy of the Cyber Hymnal™
%%score ( 1 2 ) ( 3 4 )
L:1/8
Q:1/4=107
M:4/4
K:G
V:1 treble 
V:2 treble 
V:3 bass 
V:4 bass 
V:1
 [B,D]3 [B,D] [CE]2 [CG]2 | B4 D4 | [CE]3 [CE] [Dc]2 [DB]2 | B4 A4 | [CA]3 [CB] [CA]2 D2 | d4 B4 | %6
 [^CA]3 [CA] [CB]2 [CA]2 | !fermata!D8 | DEFG AGDE | [CF]2 [CF]2 [CF]4 | DA^GA BAFE | %11
 [B,E]2 [B,D]2 [DB]4 | [DB][DB][^C^A][DB] [Dd]2 [DB]2 | AAGA B4 | ABAE ABAE | [CF]2 [CA]2 [B,G]4 |] %16
V:2
 x8 | (B,2 B,2) (B,2 B,2) | x8 | (^C2 C2 C2 C2) | x6 D2 | (D2 D2) (D2 D2) | x8 | (D4 C4) | %8
 B,2 B,2 B,2 B,2 | x8 | C2 C2 C2 C2 | x8 | x8 | E2 E2 (^D2 =D2) | ^C2 C2 C2 C2 | x8 |] %16
V:3
 D,2 D,2 E,2 _E,2 | ([G,,D,]2 [G,,D,]2) ([G,,D,G,]2 [G,,D,G,]2) | [C,G,]3 [C,G,] [E,^G,]2 [E,G,]2 | %3
 ([A,,E,G,]2 [A,,E,G,]2 [A,,E,G,]2 [A,,E,G,]2) | [D,F,]2 [D,F,]2 [D,F,]2 [C,F,]2 | %5
 [B,,G,]2 [B,,G,]2 [G,,G,]2 [G,,G,]2 | [A,,G,]2 [A,,G,]2 [A,,G,]2 [A,,G,]2 | %7
 ([D,F,]2 [E,G,]2 !fermata![F,A,]4) | [G,,G,]2 [G,,D,]2 [G,,D,]2 [G,,D,]2 | %9
 [A,,D,]2 [A,,D,]2 [A,,D,]4 | [D,F,]2 [D,F,]2 [D,F,]2 [D,A,]2 | [G,,G,]2 [G,,G,]2 [G,,G,]4 | %12
 [G,,G,]2 [G,,G,]2 [B,,G,]2 [G,,G,]2 | [C,G,]2 [C,E,]2 ([B,,F,]2 [E,^G,]2) | %14
 [A,,A,]2 [A,,A,]2 [A,,G,]2 [A,,G,]2 | [D,A,]2 [D,F,]2 [G,,D,G,]4 |] %16
V:4
 G,,8- | x8 | x8 | x8 | x8 | x8 | x8 | x8 | x8 | x8 | x8 | x8 | x8 | x8 | x8 | x8 |] %16

